!!!ONB: MCCC : ILB0183_02 : Extracted Monophonic Melody
!!!COM: Beethoven, Ludwig van
!!!OPR: Piano Sonata No.22
!!!OMV: 2
!!!SCT: Op.54
!!!ODT: 1804///
**kern
*thru
*staff1
*>A
*Ipiano
*clefG2
*k[b-]
*F:
*M2/4
*MM120
16A
16c
16f
16G
16e
16A
16f
=4
16B-
16g
16c
16a
16d
16b-
16e
16cc
=5
16a
16f
[8cc
4cc_
=6
2cc]
=7
16r
16a
16cc
16ff
16g
16ee
16a
16ff
=8
16b-
16gg
16cc
16aa
16dd
16bb-
16ee
16ccc
=9
16aa
16ff
16ccc
16ee
16ff
16dd
16aa
16cc
=10
16dd
16b-
16ff
16a
16b-
16g
16dd
16f
=11
16g
16d
16b-
16d
16g
16d
16f
16d
=12
16e
16c
16A
16d
16G
16c
16F
16B
=13
16C
16E
16G
16c
16D#
16B
16E
16c
=14
16E
16G
16c
16e
16B
16d#
16c
16e
=15
16c
16e
16g
16cc
16d#
16b
16e
16cc
=16
16b
16dd#
16cc
16ee
16dd#
16ff#
16ee
16gg
=17
16ccc
16cc
16dd
16ee
16ff
16gg
16aa
16bb
=18
16ccc
16cc
16dd
16ee
16ff
16gg
16aa
16bb
=19
8ccc
8r
8c
8r
=20
*>A1
2r
=21
*>A
*Ipiano
*M2/4
2r
=22
2r
=23
16r
16A
16c
16f
16G
16e
16A
16f
=24
16B-
16g
16c
16a
16d
16b-
16e
16cc
=25
16a
16f
[8cc
4cc_
=26
2cc]
=27
16r
16a
16cc
16ff
16g
16ee
16a
16ff
=28
16b-
16gg
16cc
16aa
16dd
16bb-
16ee
16ccc
=29
16aa
16ff
16ccc
16ee
16ff
16dd
16aa
16cc
=30
16dd
16b-
16ff
16a
16b-
16g
16dd
16f
=31
16g
16d
16b-
16d
16g
16d
16f
16d
=32
16e
16c
16A
16d
16G
16c
16F
16B
=33
16C
16E
16G
16c
16D#
16B
16E
16c
=34
16E
16G
16c
16e
16B
16d#
16c
16e
=35
16c
16e
16g
16cc
16d#
16b
16e
16cc
=36
16b
16dd#
16cc
16ee
16dd#
16ff#
16ee
16gg
=37
16ccc
16cc
16dd
16ee
16ff
16gg
16aa
16bb
=38
16ccc
16cc
16dd
16ee
16ff
16gg
16aa
16bb
=39
8ccc
8r
8c
8r
=40
*>A2
2r
=41
2r
=42
2r
=43
*>B
16r
16c#
16e
16a
16B
16g#
16c#
16a
=44
16d
16b
16e
16cc#
16f#
16dd
16g#
16ee
=45
16cc#
16a
[8ee
4ee_
=46
2ee]
=47
16r
16cc#
16ee
16aa
16b
16gg#
16cc#
16aa
=48
16dd
16bb
16ee
16ccc#
16aa
16ddd
16aa
16eee
=49
16fff
16aa
16eee
16ccc
16ddd
16ff
16ccc
16aa
=50
16bb-
16dd
16aa
16ff
16gg
16b-
16bb-
16ff
=51
16aa
16ee
16cc#
16gg
16ff
16dd
16b-
16ee
=52
16a
16dd
16g#
16dd
16g
16dd
16cc#
16gg
=53
16ff
16dd
16aa
16cc
16dd
16b-
16ff
16a
=54
16b-
16g
16dd
16f
16g
16e-
16b-
16B-
=55
16a
16e
16c#
16g
16f
16d
16B-
16e
=56
16d
16A
16G#
16d
16G#
16d
16G#
16c#
=57
16C
16E-
16F#
16c
16B
16c
16E-
16F#
=58
16E-
16G
16c
16e-
16d
16e-
16G
16c
=59
16A
16c
16e-
16a
16g#
16a
16c
16e-
=60
16c
16e-
16a
16cc
16b
16cc
16e-
16a
=61
16e
16a
16cc
16ee
16dd#
16ee
16a
16cc
=62
16f#
16a
16cc
16ff#
16ee#
16ff#
16a
16cc
=63
16a
16cc
16ff#
16aa
16gg#
16aa
16cc
16ff#
=64
16cc
16ff#
16aa
16ccc
16bb
16ccc
16ff#
16aa
=65
8bb
8r
8dd
[8dd
=66
8dd]
[8dd
8dd]
8dd
=67
16G
16B
16d
16g
16A
16f#
16B
16g
=68
16c
16a
16d
16b
16e
16cc
16f#
16dd
=69
16b
16g
[8dd
8dd]
[8ddd
=70
8ddd]
[8ddd
8ddd]
8ddd
=71
16g
16b
16dd
16gg
16a-
16ff
16g
16ee-
=72
16f
16dd
16e-
16cc
16d
16cc
16d
16b
=73
8cc
8r
8g
[8g
=74
8g]
4g
8g
=75
16c
16e-
16g
16cc
16d
16b
16e-
16cc
=76
16f
16dd
16g
16ee-
16a
16ff
16b
16gg
=77
16ee-
16cc
[8gg
8gg]
[8gg
=78
8gg]
4gg
8gg
=79
16cc
16ee
16gg
16ccc
16dd-
16bb-
16cc
16aa-
=80
16b-
16gg
16a-
16ff
16g
16ee
16ee
16gg
=81
16aa-
16ff
16ccc
16ee-
16ff
16dd-
16aa-
16cc
=82
16dd-
16b-
16ff
16a-
16b-
16g-
16dd-
16f
=83
16g-
16e-
16b-
16d-
16a-
16e-
16c
16g-
=84
16f
16d-
16B-
16e-
16d-
16A-
16G-
16c
=85
16F
16c
16F
16B
16F
16B
16F
16B
=86
16F
16B
16F
16B
16F
16B
16F
16B
=87
16F
16B-
16E
16B-
16E
16B-
16E
16B-
=88
16E-
16B-
16E-
16B-
16E-
16B-
16E-
16B-
=89
16E-
16B-
16E-
16A
16A-
16e-
16A-
16e-
=90
16A-
16e
16A-
16d
16D-
16A-
16D-
16A-
=91
16D-
16A-
16D-
16G
16G-
16d-
16G-
16d-
=92
16G-
16d-
16G-
16c
16C
16G-
16C
16G-
=93
16C
16G-
16D-
16F-
16F-
16d-
16F-
16d-
=94
16F-
16d-
16F-
16d-
16D-
16G
16D-
16G
=95
16A-
16c
16e
16a-
16d-
16g
16c
16a-
=96
16A-
16c
16e-
16a-
16d-
16g
16c
16a-
=97
16A-
16c
16e-
16a-
16d-
16g
16c
16a-
=98
16d-
16g
16c
16a-
16e-
16a-
16g-
16a-
=99
16d-
16f
16a-
16dd-
16g-
16cc
16f
16dd-
=100
16d-
16f
16a-
16dd-
16g-
16cc
16f
16dd-
=101
16d-
16f
16a-
16dd-
16g-
16cc
16f
16dd-
=102
16g-
16cc
16f
16dd-
16e-
16a-
16d-
16g
=103
16A-
16c
16e-
16a-
16d-
16g
16c
16a-
=104
16A-
16c
16e-
16a-
16d-
16g
16c
16a-
=105
16A-
16c
16e-
16a-
16d-
16g
16c
16a-
=106
16d-
16g
16c
16a-
16e-
16a-
16g-
16a-
=107
16g-
16cc
16f
16dd-
16g-
16cc
16f
16dd-
=108
16g-
16cc
16f
16dd-
16g#
16cc#
16b
16cc#
=109
16b
16ee
16a#
16ee
16cc#
16ee
16f#
16ee
=110
16ee
16aa
16dd#
16aa
16ff#
16aa
16b
16aa
=111
16aa
16ddd
16gg#
16ddd
16bb
16ddd
16ee
16ddd
=112
16dd
16gg
16cc#
16gg
16ee
16gg
16a
16gg
=113
16gg
16ccc
16ff#
16ccc
16aa
16ccc
16dd
16ccc
=114
16cc
16ff
16b
16ff
16dd
16ff
16g
16ff
=115
16ff
16bb-
16ee
16bb-
16gg
16bb-
16dd-
16bb-
=116
16cc
16aa
16gg
16b-
16a
16ff
16ee
16g
=117
16f
16dd
16cc
16e-
16d
16b-
16c
16a
=118
16d
16g
16G
16f
16G
16e
16F
16B
=119
8c
8r
8g
[8g
=120
8g]
4g
8g
=121
16c
16e
16g
16cc
16d
16b
16e
16cc
=122
16f
16dd
16g
16ee
16a
16ff
16b
16gg
=123
16ee
16cc
[8gg
8gg]
[8gg
=124
8gg]
4gg
8gg
=125
16g
16ee
16a
16ff
16f
16dd
16g
16ee
=126
16e
16cc
8r
4r
=127
16ee
16gg
16ff
16aa
16dd
16ff
16ee
16gg
=128
16cc
16ee
8r
4r
=129
16bb-
16gg
16ccc
16aa
16aa
16ff
16bb-
16gg
=130
16gg
16ee
16aa
16ff
16ff
16dd
16gg
16ee
=131
16ee
16cc
16ff
16dd
16dd
16b-
16ee
16cc
=132
16cc
16a
16dd
16b-
16b-
16g
16cc
16a
=133
16a
16f
16b-
16g
16cc
16a
16dd
16b-
=134
16cc
16a
16b-
16g
16a
16f
16g
16c
=135
16F
16A
16c
16f
16G
16e
16A
16f
=136
16B-
16g
16c
16a
16d
16b-
16e
16cc
=137
16f
16a
16cc
16ff
16g
16ee
16a
16ff
=138
16b-
16gg
16cc
16aa
16dd
16bb-
16ee
16ccc
=139
16aa
16ff
16ccc
16cc
16ccc
16cc
16ccc
16cc
=140
16ccc
16cc
16ccc
16cc
16ccc
16cc
16ccc
16cc
=141
16a
16cc
16ff
16aa
16cc
16aa
16dd
16bb-
=142
16ee-
16ccc
16ff
16ddd
16ccc
16eee-
16aa
16fff
=143
16ddd
16bb-
16fff
16aa
16bb-
16gg
16ddd
16ff
=144
16gg
16ee-
16bb-
16dd
16ee-
16cc
16gg
16b-
=145
16ff
16cc
16a
16ee-
16dd
16b-
16g
16cc
=146
16f
16cc
16f
16b-
16e-
16b-
16e-
16a
=147
16dd-
16b-
16ff
16a-
16b-
16g-
16dd-
16f
=148
16g-
16e
16b-
16d-
16a-
16e
16c
16g-
=149
16f
16A-
16B-
16e-
16A-
16d-
16G-
16c
=150
16F
16B
16F
16G
16A-
16G
16A-
16F
=151
16r
16B
16F
16G
16A-
16G
16A-
16F
=152
16r
16c
16F
16G
16A-
16G
16A-
16F
=153
16r
16F
16A-
16d
16r
16F
16A-
16d
=154
16C
16E
16G
16c
16D-
16B
16C
16c
=155
16c
16e
16g
16cc
16d-
16b
16c
16cc
=156
16cc
16ee
16gg
16ccc
16dd-
16bb
16cc
16ccc
=157
16dd-
16bb
16cc
16ccc
16cc-
16aa
16b-
16bb-
=158
16BB-
16D
16F
16B-
16C-
16A
16BB-
16B-
=159
16B-
16d
16f
16b-
16c-
16a
16B-
16b-
=160
16b-
16dd
16ff
16bb-
16cc-
16aa
16b-
16bb-
=161
16cc-
16aa
16b-
16bb-
16b--
16gg
16a-
16aa-
=162
16AA-
16C
16E-
16A-
16BB--
16G
16AA-
16A-
=163
16A-
16c
16e-
16a
16B--
16g
16A-
16a
=164
16a-
16cc
16ee-
16aa-
16b--
16gg
16a-
16aa-
=165
16b--
16gg
16a-
16aa-
16a-
16ff
16a-
16ff
=166
16a-
16ff
16g-
16gg-
16a-
16ff
16g-
16gg-
=167
16a-
16ff
16g-
16gg-
16g-
16ee-
16g-
16ee-
=168
16g-
16ee-
16f
16ff
16f
16dd
16e-
16ee-
=169
16e-
16cc
16d-
16dd-
16d-
16b-
16c-
16cc-
=170
16c
16a
16B-
16b-
16f
16b
16f
16b
=171
16f
16b
16f
16b
16B
16f
16B
16f
=172
16r
16e
16r
16e
16r
16e
16r
16e
=173
16r
16f
16r
16f
16r
16f
16r
16f
=174
16r
16g
16r
16g
16r
16g
16r
16g
=175
16r
16f
16r
16f
16r
16f
16r
16f
=176
16r
16e
16r
16e
16r
16e
16r
16e
=177
16r
16e
16r
16e
16r
16e
16r
16e
=178
16r
16e
16r
16e
16r
16e
16r
16e
=179
16r
16e
16r
16e
16r
16e
16r
16e
=180
8e
8e
8e
8e
=181
8e
8e
8e
8e
=182
*>B1
8e
8r
4r
=183
2r
=184
*>B
16r
16c#
16e
16a
16B
16g#
16c#
16a
=185
16d
16b
16e
16cc#
16f#
16dd
16g#
16ee
=186
16cc#
16a
[8ee
4ee_
=187
2ee]
=188
16r
16cc#
16ee
16aa
16b
16gg#
16cc#
16aa
=189
16dd
16bb
16ee
16ccc#
16aa
16ddd
16aa
16eee
=190
16fff
16aa
16eee
16ccc
16ddd
16ff
16ccc
16aa
=191
16bb-
16dd
16aa
16ff
16gg
16b-
16bb-
16ff
=192
16aa
16ee
16cc#
16gg
16ff
16dd
16b-
16ee
=193
16a
16dd
16g#
16dd
16g
16dd
16cc#
16gg
=194
16ff
16dd
16aa
16cc
16dd
16b-
16ff
16a
=195
16b-
16g
16dd
16f
16g
16e-
16b-
16B-
=196
16a
16e
16c#
16g
16f
16d
16B-
16e
=197
16d
16A
16G#
16d
16G#
16d
16G#
16c#
=198
16C
16E-
16F#
16c
16B
16c
16E-
16F#
=199
16E-
16G
16c
16e-
16d
16e-
16G
16c
=200
16A
16c
16e-
16a
16g#
16a
16c
16e-
=201
16c
16e-
16a
16cc
16b
16cc
16e-
16a
=202
16e
16a
16cc
16ee
16dd#
16ee
16a
16cc
=203
16f#
16a
16cc
16ff#
16ee#
16ff#
16a
16cc
=204
16a
16cc
16ff#
16aa
16gg#
16aa
16cc
16ff#
=205
16cc
16ff#
16aa
16ccc
16bb
16ccc
16ff#
16aa
=206
8bb
8r
8dd
[8dd
=207
8dd]
[8dd
8dd]
8dd
=208
16G
16B
16d
16g
16A
16f#
16B
16g
=209
16c
16a
16d
16b
16e
16cc
16f#
16dd
=210
16b
16g
[8dd
8dd]
[8ddd
=211
8ddd]
[8ddd
8ddd]
8ddd
=212
16g
16b
16dd
16gg
16a-
16ff
16g
16ee-
=213
16f
16dd
16e-
16cc
16d
16cc
16d
16b
=214
8cc
8r
8g
[8g
=215
8g]
4g
8g
=216
16c
16e-
16g
16cc
16d
16b
16e-
16cc
=217
16f
16dd
16g
16ee-
16a
16ff
16b
16gg
=218
16ee-
16cc
[8gg
8gg]
[8gg
=219
8gg]
4gg
8gg
=220
16cc
16ee
16gg
16ccc
16dd-
16bb-
16cc
16aa-
=221
16b-
16gg
16a-
16ff
16g
16ee
16ee
16gg
=222
16aa-
16ff
16ccc
16ee-
16ff
16dd-
16aa-
16cc
=223
16dd-
16b-
16ff
16a-
16b-
16g-
16dd-
16f
=224
16g-
16e-
16b-
16d-
16a-
16e-
16c
16g-
=225
16f
16d-
16B-
16e-
16d-
16A-
16G-
16c
=226
16F
16c
16F
16B
16F
16B
16F
16B
=227
16F
16B
16F
16B
16F
16B
16F
16B
=228
16F
16B-
16E
16B-
16E
16B-
16E
16B-
=229
16E-
16B-
16E-
16B-
16E-
16B-
16E-
16B-
=230
16E-
16B-
16E-
16A
16A-
16e-
16A-
16e-
=231
16A-
16e
16A-
16d
16D-
16A-
16D-
16A-
=232
16D-
16A-
16D-
16G
16G-
16d-
16G-
16d-
=233
16G-
16d-
16G-
16c
16C
16G-
16C
16G-
=234
16C
16G-
16D-
16F-
16F-
16d-
16F-
16d-
=235
16F-
16d-
16F-
16d-
16D-
16G
16D-
16G
=236
16A-
16c
16e
16a-
16d-
16g
16c
16a-
=237
16A-
16c
16e-
16a-
16d-
16g
16c
16a-
=238
16A-
16c
16e-
16a-
16d-
16g
16c
16a-
=239
16d-
16g
16c
16a-
16e-
16a-
16g-
16a-
=240
16d-
16f
16a-
16dd-
16g-
16cc
16f
16dd-
=241
16d-
16f
16a-
16dd-
16g-
16cc
16f
16dd-
=242
16d-
16f
16a-
16dd-
16g-
16cc
16f
16dd-
=243
16g-
16cc
16f
16dd-
16e-
16a-
16d-
16g
=244
16A-
16c
16e-
16a-
16d-
16g
16c
16a-
=245
16A-
16c
16e-
16a-
16d-
16g
16c
16a-
=246
16A-
16c
16e-
16a-
16d-
16g
16c
16a-
=247
16d-
16g
16c
16a-
16e-
16a-
16g-
16a-
=248
16g-
16cc
16f
16dd-
16g-
16cc
16f
16dd-
=249
16g-
16cc
16f
16dd-
16g#
16cc#
16b
16cc#
=250
16b
16ee
16a#
16ee
16cc#
16ee
16f#
16ee
=251
16ee
16aa
16dd#
16aa
16ff#
16aa
16b
16aa
=252
16aa
16ddd
16gg#
16ddd
16bb
16ddd
16ee
16ddd
=253
16dd
16gg
16cc#
16gg
16ee
16gg
16a
16gg
=254
16gg
16ccc
16ff#
16ccc
16aa
16ccc
16dd
16ccc
=255
16cc
16ff
16b
16ff
16dd
16ff
16g
16ff
=256
16ff
16bb-
16ee
16bb-
16gg
16bb-
16dd-
16bb-
=257
16cc
16aa
16gg
16b-
16a
16ff
16ee
16g
=258
16f
16dd
16cc
16e-
16d
16b-
16c
16a
=259
16d
16g
16G
16f
16G
16e
16F
16B
=260
8c
8r
8g
[8g
=261
8g]
4g
8g
=262
16c
16e
16g
16cc
16d
16b
16e
16cc
=263
16f
16dd
16g
16ee
16a
16ff
16b
16gg
=264
16ee
16cc
[8gg
8gg]
[8gg
=265
8gg]
4gg
8gg
=266
16g
16ee
16a
16ff
16f
16dd
16g
16ee
=267
16e
16cc
8r
4r
=268
16ee
16gg
16ff
16aa
16dd
16ff
16ee
16gg
=269
16cc
16ee
8r
4r
=270
16bb-
16gg
16ccc
16aa
16aa
16ff
16bb-
16gg
=271
16gg
16ee
16aa
16ff
16ff
16dd
16gg
16ee
=272
16ee
16cc
16ff
16dd
16dd
16b-
16ee
16cc
=273
16cc
16a
16dd
16b-
16b-
16g
16cc
16a
=274
16a
16f
16b-
16g
16cc
16a
16dd
16b-
=275
16cc
16a
16b-
16g
16a
16f
16g
16c
=276
16F
16A
16c
16f
16G
16e
16A
16f
=277
16B-
16g
16c
16a
16d
16b-
16e
16cc
=278
16f
16a
16cc
16ff
16g
16ee
16a
16ff
=279
16b-
16gg
16cc
16aa
16dd
16bb-
16ee
16ccc
=280
16aa
16ff
16ccc
16cc
16ccc
16cc
16ccc
16cc
=281
16ccc
16cc
16ccc
16cc
16ccc
16cc
16ccc
16cc
=282
16a
16cc
16ff
16aa
16cc
16aa
16dd
16bb-
=283
16ee-
16ccc
16ff
16ddd
16ccc
16eee-
16aa
16fff
=284
16ddd
16bb-
16fff
16aa
16bb-
16gg
16ddd
16ff
=285
16gg
16ee-
16bb-
16dd
16ee-
16cc
16gg
16b-
=286
16ff
16cc
16a
16ee-
16dd
16b-
16g
16cc
=287
16f
16cc
16f
16b-
16e-
16b-
16e-
16a
=288
16dd-
16b-
16ff
16a-
16b-
16g-
16dd-
16f
=289
16g-
16e
16b-
16d-
16a-
16e
16c
16g-
=290
16f
16A-
16B-
16e-
16A-
16d-
16G-
16c
=291
16F
16B
16F
16G
16A-
16G
16A-
16F
=292
16r
16B
16F
16G
16A-
16G
16A-
16F
=293
16r
16c
16F
16G
16A-
16G
16A-
16F
=294
16r
16F
16A-
16d
16r
16F
16A-
16d
=295
16C
16E
16G
16c
16D-
16B
16C
16c
=296
16c
16e
16g
16cc
16d-
16b
16c
16cc
=297
16cc
16ee
16gg
16ccc
16dd-
16bb
16cc
16ccc
=298
16dd-
16bb
16cc
16ccc
16cc-
16aa
16b-
16bb-
=299
16BB-
16D
16F
16B-
16C-
16A
16BB-
16B-
=300
16B-
16d
16f
16b-
16c-
16a
16B-
16b-
=301
16b-
16dd
16ff
16bb-
16cc-
16aa
16b-
16bb-
=302
16cc-
16aa
16b-
16bb-
16b--
16gg
16a-
16aa-
=303
16AA-
16C
16E-
16A-
16BB--
16G
16AA-
16A-
=304
16A-
16c
16e-
16a
16B--
16g
16A-
16a
=305
16a-
16cc
16ee-
16aa-
16b--
16gg
16a-
16aa-
=306
16b--
16gg
16a-
16aa-
16a-
16ff
16a-
16ff
=307
16a-
16ff
16g-
16gg-
16a-
16ff
16g-
16gg-
=308
16a-
16ff
16g-
16gg-
16g-
16ee-
16g-
16ee-
=309
16g-
16ee-
16f
16ff
16f
16dd
16e-
16ee-
=310
16e-
16cc
16d-
16dd-
16d-
16b-
16c-
16cc-
=311
16c
16a
16B-
16b-
16f
16b
16f
16b
=312
16f
16b
16f
16b
16B
16f
16B
16f
=313
16r
16e
16r
16e
16r
16e
16r
16e
=314
16r
16f
16r
16f
16r
16f
16r
16f
=315
16r
16g
16r
16g
16r
16g
16r
16g
=316
16r
16f
16r
16f
16r
16f
16r
16f
=317
16r
16e
16r
16e
16r
16e
16r
16e
=318
16r
16e
16r
16e
16r
16e
16r
16e
=319
16r
16e
16r
16e
16r
16e
16r
16e
=320
16r
16e
16r
16e
16r
16e
16r
16e
=321
8e
8e
8e
8e
=322
8e
8e
8e
8e
=323
*>B2
16F
16A
16c
16f
16G
16e
16A
16f
=324
*>C
16B-
16g
16c
16a
16d
16b-
16e
16cc
=325
16f
16a
16cc
16ff
16g
16ee
16a
16ff
=326
16b-
16gg
16cc
16aa
16dd
16bb-
16ee
16ccc
=327
16ff
16aa
16ccc
16fff
16ee
16eee
16ff
16fff
=328
16cc#
16ccc#
16dd
16ddd
16a
16aa
16b-
16bb-
=329
16f#
16ff#
16g
16gg
16d#
16dd#
16e
16ee
=330
16g
16cc#
16f
16dd
16a
16cc
16B-
16e
=331
16F
16A
16c
16f
16G
16e
16A
16f
=332
16B-
16g
16c
16a
16d
16b-
16e
16cc
=333
16f
16a
16cc
16ff
16g
16ee
16a
16ff
=334
16b-
16gg
16cc
16aa
16dd
16bb-
16ee
16ccc
=335
16ff
16aa
16ccc
16fff
16ee
16eee
16ff
16fff
=336
16cc#
16ccc#
16dd
16ddd
16a
16aa
16b-
16bb-
=337
16f#
16ff#
16g
16gg
16d#
16dd#
16e
16ee
=338
16g
16cc#
16f
16dd
16a
16cc
16g
16cc
=339
16g
16cc#
16f
16dd
16a
16cc
16g
16cc
=340
16g
16cc#
16f
16dd
16a
16cc
16g
16cc
=341
8a
8r
8cc
[8cc
=342
4cc]
8cc
[8cc
=343
4cc]
8cc
[8cc
=344
8cc]
[8cc
8cc]
8cc
=345
16f
16a
16cc
16ff
16g#
16ee
16a
16ff
=346
16a
16cc
16ff
16aa
16b
16gg#
16cc
16aa
=347
16cc
16ff
16aa
16ccc
16gg#
16bb
16aa
16ccc
=348
16gg#
16bb
16aa
16ccc
16gg#
16bb
16aa
16ccc
=349
8aa
8r
8A
8r
==
*-
